build/images/icons/pinterest.svg

<svg xmlns="http://www.w3.org/2000/svg" width="13" height="17"><path d="M5.844 10.424c-.131.521-.262 1.066-.398 1.6-.135.526-.253 1.06-.449 1.543-.324.801-.737 1.575-1.277 2.201-.359.417-.283.251-.391.228-.083-.017-.09-.097-.106-.215-.088-.636-.028-1.372.005-2.087.037-.815.208-1.493.367-2.17.303-1.29.592-2.554.897-3.851.021-.087.075-.23.057-.279a3.973 3.973 0 01-.268-1.062 3.365 3.365 0 01.087-1.215c.172-.661.57-1.248 1.184-1.461.389-.136.821-.075 1.083.082.271.161.456.417.542.778.093.385.025.845-.049 1.183-.167.761-.387 1.333-.586 2.068-.099.365-.211.739-.118 1.132.085.362.273.611.529.797.266.193.581.3 1.016.285.767-.027 1.3-.517 1.657-.98.57-.741.915-1.74 1.047-2.929.042-.383.073-.824.043-1.259-.054-.802-.306-1.447-.704-1.948a3.298 3.298 0 00-1.57-1.069c-.648-.212-1.545-.282-2.342-.145-1.448.248-2.47 1.071-3.072 2.207a4.428 4.428 0 00-.523 2.131c0 .657.162 1.166.424 1.563.083.125.205.229.286.373.116.204-.018.508-.075.728-.068.265-.076.633-.386.639-.128.002-.29-.092-.398-.152C1.54 8.689 1.045 7.869.842 6.806a5.58 5.58 0 010-2.025c.119-.604.34-1.16.585-1.613A5.781 5.781 0 013.589.942 6.544 6.544 0 016.031.101c.318-.046.647-.065 1.003-.083a6.022 6.022 0 012.704.507 5.552 5.552 0 011.863 1.34 5.094 5.094 0 011.146 2.069c.126.432.249.896.249 1.43 0 .535-.114 1.008-.193 1.48-.296 1.767-1.137 3.212-2.398 4.035-.306.2-.677.384-1.097.506-.417.121-.892.213-1.402.177a2.877 2.877 0 01-1.239-.36c-.338-.191-.622-.425-.823-.778z"/></svg>

<svg 
 xmlns="http://www.w3.org/2000/svg"
 xmlns:xlink="http://www.w3.org/1999/xlink"
 width="13px" height="17px">
<path 
 d="M5.844,10.424 C5.713,10.945 5.582,11.490 5.446,12.024 C5.311,12.550 5.193,13.084 4.997,13.567 C4.673,14.368 4.260,15.142 3.720,15.768 C3.361,16.185 3.437,16.019 3.329,15.996 C3.246,15.979 3.239,15.899 3.223,15.781 C3.135,15.145 3.195,14.409 3.228,13.694 C3.265,12.879 3.436,12.201 3.595,11.524 C3.898,10.234 4.187,8.970 4.492,7.673 C4.513,7.586 4.567,7.443 4.549,7.394 C4.410,7.034 4.320,6.709 4.281,6.332 C4.235,5.896 4.270,5.491 4.368,5.117 C4.540,4.456 4.938,3.869 5.552,3.656 C5.941,3.520 6.373,3.581 6.635,3.738 C6.906,3.899 7.091,4.155 7.177,4.516 C7.270,4.901 7.202,5.361 7.128,5.699 C6.961,6.460 6.741,7.032 6.542,7.767 C6.443,8.132 6.331,8.506 6.424,8.899 C6.509,9.261 6.697,9.510 6.953,9.696 C7.219,9.889 7.534,9.996 7.969,9.981 C8.736,9.954 9.269,9.464 9.626,9.001 C10.196,8.260 10.541,7.261 10.673,6.072 C10.715,5.689 10.746,5.248 10.716,4.813 C10.662,4.011 10.410,3.366 10.012,2.865 C9.633,2.389 9.096,2.009 8.442,1.796 C7.794,1.584 6.897,1.514 6.100,1.651 C4.652,1.899 3.630,2.722 3.028,3.858 C2.713,4.453 2.505,5.138 2.505,5.989 C2.505,6.646 2.667,7.155 2.929,7.552 C3.012,7.677 3.134,7.781 3.215,7.925 C3.331,8.129 3.197,8.433 3.140,8.653 C3.072,8.918 3.064,9.286 2.754,9.292 C2.626,9.294 2.464,9.200 2.356,9.140 C1.540,8.689 1.045,7.869 0.842,6.806 C0.718,6.160 0.719,5.406 0.842,4.781 C0.961,4.177 1.182,3.621 1.427,3.168 C1.936,2.229 2.682,1.479 3.589,0.942 C4.287,0.530 5.074,0.240 6.031,0.101 C6.349,0.055 6.678,0.036 7.034,0.018 C8.077,-0.031 9.025,0.206 9.738,0.525 C10.491,0.862 11.092,1.310 11.601,1.865 C12.124,2.438 12.505,3.103 12.747,3.934 C12.873,4.366 12.996,4.830 12.996,5.364 C12.996,5.899 12.882,6.372 12.803,6.844 C12.507,8.611 11.666,10.056 10.405,10.879 C10.099,11.079 9.728,11.263 9.308,11.385 C8.891,11.506 8.416,11.598 7.906,11.562 C7.412,11.528 7.007,11.394 6.667,11.202 C6.329,11.011 6.045,10.777 5.844,10.424 Z"/>
</svg>
